X:1406
T:Keep The Country Bonnie Lassie
%
P:Keep The Country Bonnie Lassie
C:Gow
R:Strathspey (8x40) ABABB
B:RSCDS 14-6
Z:Anselm Lingnau <anselm@strathspey.org>
M:4/4
L:1/8
K:A
%
f/|"A"AA/A/ c>B A>B "D"c<f|"A"AA/A/ c>A e>A c>A|\
   "Bm"d>f "A/C#"c>e "Bm/D"B>c d<f|"A"e>A "D"a>f "E7"e2 "A"A3/2 f/|
   "A"AA/A/ c>B A>B "D"c<f|"A"AA/A/ c>A e>A c>A|\
   "Bm"d>f "A/C#"c>e "Bm/D"B>c d<f|"A"e>A "D"a>f "E7"e2 "A"A3/2||
g/|"F#m"a/g/f/e/ c>f "Bm"B>c d<g|"F#m"a/g/f/e/ c>e a/g/f/e/ c>e|\
   "Bm"d>f "A/C#"c>a "Bm/D"B>c d<f|"A"ef/g/ "D"a>f "E7"e2 "A"A3/2 g/|
   "F#m"a/g/f/e/ c>f "Bm"B>c d<g|"F#m"a/g/f/e/ c>e a/g/f/e/ c>e|\
   "Bm"d>f "A/C#"c>a "Bm/D"B>c d<f|"A"ef/g/ "D"a>f "E7"e2 "A"A3/2|]
